X:5916
T:Sean Ryan's #2
O:england
M:4/4
L:1/8
K:D
~e2 cA eAcA|eAcA Bcdf|~e2 cA eAcA|Bcdc BAFA|
e2 cA e2 cA|eAcA Bcdf|~e3 c  dcBA|FABc e3 z:|
d ~f3 d2 ec|d ~f3 afeA|a ~f3 dfec|dcBA FABc|
d ~f3 d2 ec|d ~f3 afeA|d ~f3 dfec|dcBA FAdf:|


